X:1
T:Title
%%score { ( 1 2 ) | ( 3 4 ) }
L:1/8
M:4/4
K:Eb
V:1 treble nm="Grand Piano"
V:2 treble 
V:3 bass 
V:4 bass 
V:1
 z4 z2[Q:1/4=106] z z/ F/ | G2 G2 G2 [GB]2 | [Ac]2 [GB]2 G2 E2 | [DF]2 [DF]2 [FA]2 [EG]2 | %4
 [DF]6 [EG]>[FA] | [GB]2 [GB]2 [GB]2 [Ge]2 | [Ac]2 [GB]2 [B,EG]2 [G,E]2 | %7
 [A,DF]2 [A,DF]2 [B,DG]2 [A,DF]2 |[M:3/4] [G,E]6 |[M:1/4] [EG]>[FA] | %10
[M:4/4] [GB]2 [GB]2 [Ge]2 [GB]2 | c2 c2 e2 c2 | [GB]2 [Ge]2 [Fd]2 [Ec]2 | [DB]6 [EG]>[FA] | %14
 [GB]2 [GB]2 [Ge]2 B2 | c2 c2 e2 c2 | B2 e2 G2 [DF]2 |[M:3/4] E6 |] %18
V:2
 z4 z2 E2 | x8 | x8 | x8 | x8 | x8 | x8 | x8 |[M:3/4] x6 |[M:1/4] x2 |[M:4/4] x8 | x8 | x8 | x8 | %14
 x8 | x8 | x8 |[M:3/4] x6 |] %18
V:3
 z4 z2 G,>A, | [E,B,E]2 [E,B,E]2 [E,B,E]2 [E,E]2 | [E,E]2 [E,E]2 [E,B,E]2 [E,G,]2 | %3
 [B,,B,]2 [B,,B,]2 [B,,B,]2 [B,,B,]2 | [B,,B,]6 [E,B,]2 | [E,E]2 [E,E]2 [E,E]2 [E,B,]2 | %6
 [E,E]2 [E,E]2 E,2 E,2 | B,,2 B,,2 B,,2 B,,2 |[M:3/4] E,6 |[M:1/4] [E,B,]2 | %10
[M:4/4] [E,E]2 [E,E]2 [E,B,]2 [E,E]2 | [A,EA]2 [A,EA]2 [A,CA]2 [A,EA]2 | %12
 [E,E]2 [E,B,]2 [F,B,]2 [F,=A,]2 | [B,,B,]6 [E,B,]2 | [E,E]2 [E,E]2 [E,B,]2 [E,G,E]2 | %15
 [A,E]2 [A,E]2 [A,CE]2 [A,E]2 | [E,G,E]2 [G,B,E]2 [B,E]2 [B,,A,]2 |[M:3/4] [E,G,]6 |] %18
V:4
 z4 z2 E,2 | x8 | x8 | x8 | x8 | x8 | x8 | x8 |[M:3/4] x6 |[M:1/4] x2 |[M:4/4] x8 | x8 | x8 | x8 | %14
 x8 | x8 | x8 |[M:3/4] x6 |] %18

